public/images/icons/plane.svg

<svg width="20" height="20" viewBox="0 0 20 20" fill="none" xmlns="http://www.w3.org/2000/svg">
<path d="M18.5954 0.126214L0.487941 10.5726C-0.219166 10.9789 -0.129313 11.9634 0.573888 12.2603L4.72668 14.0027L15.9505 4.11102C16.1654 3.91959 16.4701 4.21259 16.2865 4.43527L6.87534 15.9013V19.0462C6.87534 19.9682 7.98874 20.3315 8.53568 19.6635L11.0164 16.6436L15.8841 18.6829C16.4389 18.9173 17.0718 18.5696 17.1733 17.9719L19.9861 1.09507C20.119 0.305921 19.2712 -0.264453 18.5954 0.126214Z" fill="#000000"/>
</svg>

<svg xmlns="http://www.w3.org/2000/svg" width="20" height="20" fill="none"><path fill="#000" d="M18.595.126.488 10.573a.938.938 0 0 0 .086 1.687l4.153 1.743L15.95 4.11c.215-.191.52.102.337.324L6.874 15.901v3.145c0 .922 1.114 1.285 1.66.617l2.481-3.02 4.868 2.04a.94.94 0 0 0 1.29-.711l2.812-16.877c.133-.79-.715-1.36-1.39-.969Z"/></svg>
